svg/Communication/phone-twotone.svg

<svg xmlns="http://www.w3.org/2000/svg" width="24" height="24" viewBox="0 0 24 24">
	<g fill="none" stroke="currentColor" stroke-width="2" stroke-linecap="round" stroke-linejoin="round">
		<path d="M8 3c0.5 0 2.5 4.5 2.5 5c0 1 -1.5 2 -2 3c-0.5 1 0.5 2 1.5 3c0.39 0.39 2 2 3 1.5c1 -0.5 2 -2 3 -2c0.5 0 5 2 5 2.5c0 2 -1.5 3.5 -3 4c-1.5 0.5 -2.5 0.5 -4.5 0c-2 -0.5 -3.5 -1 -6 -3.5c-2.5 -2.5 -3 -4 -3.5 -6c-0.5 -2 -0.5 -3 0 -4.5c0.5 -1.5 2 -3 4 -3Z" fill="currentColor" fill-opacity="0" stroke-dasharray="64" stroke-dashoffset="64">
			<animate attributeName="fill-opacity" values="0;0.3" begin="0.7s" dur="0.15s" fill="freeze" />
			<animate attributeName="stroke-dashoffset" values="64;0" dur="0.6s" fill="freeze" />
		</path>
	</g>
</svg>

<svg xmlns="http://www.w3.org/2000/svg" width="24" height="24" viewBox="0 0 24 24">
	<g fill="currentColor" fill-opacity="0" stroke="currentColor" stroke-width="2" stroke-linejoin="round" stroke-linecap="round">
		<path d="M8 3C8.5 3 10.5 7.5 10.5 8C10.5 9 9 10 8.5 11C8 12 9 13 10 14C10.3943 14.3943 12 16 13 15.5C14 15 15 13.5 16 13.5C16.5 13.5 21 15.5 21 16C21 18 19.5 19.5 18 20C16.5 20.5 15.5 20.5 13.5 20C11.5 19.5 10 19 7.5 16.5C5 14 4.5 12.5 4 10.5C3.5 8.5 3.5 7.5 4 6C4.5 4.5 6 3 8 3Z" stroke-dasharray="64" stroke-dashoffset="64">
			<animate attributeName="stroke-dashoffset" values="64;0" dur="0.6s" fill="freeze" />
			<animate attributeName="fill-opacity" values="0;0.3" begin="0.6s" dur="0.15s" fill="freeze" />
		</path>
	</g>
</svg>
